X: 14
T:Barbary Bell
% Nottingham Music Database
S:Kevin Briggs, via EF
Y:AB
M:6/8
K:G
P:A
d|"G"GAG GBc|"G"ded dBG|"C"ABc "G/b"BAG|"Am"EGE "D7"E2D|
"G"GAG GBc|"G"ded dBG|"C"ABc "G/b"BAG|"C"E2F "G"G2:|
P:B
D|"D7"def "G"gag|"D"fed "Em"edB|"Bm"def "Em"gag|"Bm"fed "Em"e2d|
"D7"def "G"gdB|"C"cde "G"dBG|"C"ABc "G/b"BAG|"C"E2F "G"G2:|


